images/footer/countries/4.svg

<svg width="37" height="22" viewBox="0 0 37 22" fill="none" xmlns="http://www.w3.org/2000/svg">
<path d="M37 0H27.1V22H37V0Z" fill="white"/>
<path d="M9.9 0H0V22H9.9V0Z" fill="white"/>
<path fill-rule="evenodd" clip-rule="evenodd" d="M18.8 19.1002C18.7 17.7002 18.7 16.8002 18.6 15.9002C18.6 15.5002 18.9 15.6002 19.2 15.6002C21.2 15.9002 22.2 16.1002 22.2 16.1002C21.2 14.1002 23.8 13.2002 25.1 12.0002C24.1 11.6002 24.2 11.8002 24.9 9.3002C22.7 10.0002 22.9 9.8002 22.4 8.7002C22.4 8.7002 22.2 8.9002 20.9 10.4002C20.7 10.6002 20.4 10.5002 20.4 10.1002C21.1 6.6002 21.1 6.4002 21.1 6.4002C19.7 7.2002 19.8 7.3002 19.5 6.9002C18.7 5.4002 18.4 4.7002 18.4 4.7002C18.4 4.7002 18 5.4002 17.3 6.9002C17.1 7.3002 17.1 7.3002 15.7 6.4002C15.7 6.4002 15.7 6.5002 16.4 10.1002C16.5 10.4002 16.1 10.6002 15.9 10.4002C14.5 8.9002 14.4 8.7002 14.4 8.7002C13.9 9.8002 14.1 10.0002 11.9 9.3002C12.6 11.8002 12.7 11.7002 11.7 12.0002C13.1 13.1002 15.7 14.1002 14.6 16.1002C14.6 16.1002 15.6 16.0002 17.6 15.6002C17.8 15.6002 18.2 15.5002 18.2 15.9002C18.2 16.8002 18.1 17.7002 18 19.1002H18.8Z" fill="white"/>
<path d="M0 0H37V1H0V0ZM0 21H37V22H0V21Z" fill="white"/>
</svg>

<svg width="37" height="22" fill="none" xmlns="http://www.w3.org/2000/svg"><path d="M37 0h-9.9v22H37V0zM9.9 0H0v22h9.9V0z" fill="#fff"/><path fill-rule="evenodd" clip-rule="evenodd" d="M18.8 19.1c-.1-1.4-.1-2.3-.2-3.2 0-.4.3-.3.6-.3 2 .3 3 .5 3 .5-1-2 1.6-2.9 2.9-4.1-1-.4-.9-.2-.2-2.7-2.2.7-2 .5-2.5-.6 0 0-.2.2-1.5 1.7-.2.2-.5.1-.5-.3.7-3.5.7-3.7.7-3.7-1.4.8-1.3.9-1.6.5-.8-1.5-1.1-2.2-1.1-2.2s-.4.7-1.1 2.2c-.2.4-.2.4-1.6-.5 0 0 0 .1.7 3.7.1.3-.3.5-.5.3-1.4-1.5-1.5-1.7-1.5-1.7-.5 1.1-.3 1.3-2.5.6.7 2.5.8 2.4-.2 2.7 1.4 1.1 4 2.1 2.9 4.1 0 0 1-.1 3-.5.2 0 .6-.1.6.3 0 .9-.1 1.8-.2 3.2h.8z" fill="#fff"/><path d="M0 0h37v1H0V0zm0 21h37v1H0v-1z" fill="#fff"/></svg>
